FlatUX/src/svg/Sega - Game Gear-content.svg

<svg enable-background="new 0 0 256 256" viewBox="0 0 256 256" xmlns="http://www.w3.org/2000/svg"><path d="m239.167 240h-222.334c-2.669 0-4.833-1.831-4.833-4.089v-179.911h232v179.911c0 2.258-2.164 4.089-4.833 4.089z" fill="#2b3e51"/><path d="m234.333 16h-212.666c-5.339 0-9.667 4.229-9.667 9.447v86.2s0 4.723 8.458 4.33c8.458-.394 7.25-4.723 7.25-4.723v-23.901c.403-28.624 32.625-28.449 32.625-28.449h135.333s32.222-.175 32.625 28.449v23.901s-1.208 4.33 7.25 4.723c8.458.394 8.458-4.33 8.458-4.33v-86.2c.001-5.218-4.327-9.447-9.666-9.447z" fill="#35495f"/><path d="m72 44h112v4h-112z" fill="#223140"/><path d="m72 52h112v4h-112z" fill="#223140"/><path d="m200.286 68c10.87 0 19.714 8.585 19.714 19.138v100.077c0 2.642-2.207 4.785-4.929 4.785h-174.142c-2.722 0-4.929-2.142-4.929-4.785v-100.077c0-10.57 8.826-19.138 19.714-19.138z" fill="#1b80bb"/><path d="m161.753 228h-67.506c-6.736 0-12.247-5.4-12.247-12 0-6.6 5.511-12 12.247-12h67.507c6.736 0 12.247 5.4 12.247 12-.001 6.6-5.512 12-12.248 12z" fill="#223140"/></svg>

<svg xmlns="http://www.w3.org/2000/svg" viewBox="0 0 256 256"><path fill="#2b3e51" d="M239.167 240H16.833c-2.669 0-4.833-1.831-4.833-4.089V56h232v179.911c0 2.258-2.164 4.089-4.833 4.089"/><path fill="#35495f" d="M234.333 16H21.667C16.328 16 12 20.229 12 25.447v86.2s0 4.723 8.458 4.33c8.458-.394 7.25-4.723 7.25-4.723V87.353c.403-28.624 32.625-28.449 32.625-28.449h135.333s32.222-.175 32.625 28.449v23.901s-1.208 4.33 7.25 4.723c8.458.394 8.458-4.33 8.458-4.33v-86.2C244 20.229 239.672 16 234.333 16"/><path fill="#223140" d="M72 44h112v4H72zm0 8h112v4H72z"/><path fill="#1b80bb" d="M200.286 68C211.156 68 220 76.585 220 87.138v100.077c0 2.642-2.207 4.785-4.929 4.785H40.929c-2.722 0-4.929-2.142-4.929-4.785V87.138C36 76.568 44.826 68 55.714 68z"/><path fill="#223140" d="M161.753 228H94.247C87.511 228 82 222.6 82 216s5.511-12 12.247-12h67.507c6.736 0 12.247 5.4 12.247 12-.001 6.6-5.512 12-12.248 12"/></svg>
